X: 25683
T: Martin Wynne's
R: reel
M: 4/4
K: Dmajor
DE|FBAF E2FE|DB,B,2 DB,A,2|B,EE2 FEDE|FABc dcBA|
FBAF E2FE|DB,B,2 DB,A,2|B,EE2 FEDE|FBBA B2||
AG|FBAF A2dA|B/c/deg fdde|ffaf egfe|dBAd B2AG|
FBAF A2dA|B/c/deg fddf|bfaf egfe|dBAd B2||

